Images/frustration.svg

<svg fill="none" height="69" viewBox="0 0 68 69" width="68" xmlns="http://www.w3.org/2000/svg"><g fill="#b30000"><path d="m20.4593 32.8953c1.5509 0 2.8081-1.2572 2.8081-2.8081s-1.2572-2.8081-2.8081-2.8081-2.8082 1.2572-2.8082 2.8081 1.2573 2.8081 2.8082 2.8081z"/><path d="m44.1278 32.8953c1.7724 0 3.2093-1.2572 3.2093-2.8081s-1.4369-2.8081-3.2093-2.8081c-1.7725 0-3.2093 1.2572-3.2093 2.8081s1.4368 2.8081 3.2093 2.8081z"/><path d="m33.6977 69c18.2657 0 33.6976-15.7985 33.6976-34.5s-15.4319-34.5-33.6976-34.5c-18.2658 0-33.6977 15.7985-33.6977 34.5s15.4319 34.5 33.6977 34.5zm0-65.71429c16.5263 0 30.4883 14.29449 30.4883 31.21429s-13.962 31.2143-30.4883 31.2143-30.4884-14.2945-30.4884-31.2143 13.9621-31.21429 30.4884-31.21429z"/><path d="m19.2556 50.5477c0 .8856.7189 1.6027 1.6047 1.6027h25.6744v.0008c.8023 0 1.6046-.7179 1.6046-1.6043 0-.8863-.718-1.605-1.6046-1.605-2.7664 0-22.9072 0-25.6744 0-.8866 0-1.6047.7203-1.6047 1.6058z"/><path d="m40.9201 28.0813c.2415 0 .4862-.0546.7165-.1693l8.0226-4.0109c.7926-.3963 1.1135-1.3598.718-2.1531-.3971-.7926-1.3614-1.1143-2.1533-.718l-8.0226 4.011c-.7926.3963-1.1135 1.3597-.718 2.1531.2824.5623.8488.8872 1.4368.8872z"/><path d="m16.131 23.0984 8.0221 4.0111c.231.1155.4757.1693.7172.1693.588 0 1.1552-.3249 1.4367-.8873.3963-.7926.0746-1.7561-.7179-2.1532l-8.0221-4.0111c-.7918-.3955-1.7561-.0746-2.1532.718-.3963.7934-.0746 1.7569.7172 2.1532z"/></g></svg>

<svg width="68" height="69" viewBox="0 0 68 69" fill="none" xmlns="http://www.w3.org/2000/svg">
<path d="M20.4585 32.8953C22.0094 32.8953 23.2667 31.6381 23.2667 30.0872C23.2667 28.5363 22.0094 27.2791 20.4585 27.2791C18.9076 27.2791 17.6504 28.5363 17.6504 30.0872C17.6504 31.6381 18.9076 32.8953 20.4585 32.8953Z" fill="#FF0000"/>
<path d="M44.1273 32.8953C45.8997 32.8953 47.3366 31.6381 47.3366 30.0872C47.3366 28.5363 45.8997 27.2791 44.1273 27.2791C42.3548 27.2791 40.918 28.5363 40.918 30.0872C40.918 31.6381 42.3548 32.8953 44.1273 32.8953Z" fill="#FF0000"/>
<path d="M33.6977 69C51.9634 69 67.3953 53.2015 67.3953 34.5C67.3953 15.7985 51.9634 0 33.6977 0C15.4319 0 0 15.7985 0 34.5C0 53.2015 15.4319 69 33.6977 69ZM33.6977 3.28571C50.224 3.28571 64.186 17.5802 64.186 34.5C64.186 51.4198 50.224 65.7143 33.6977 65.7143C17.1714 65.7143 3.2093 51.4198 3.2093 34.5C3.2093 17.5802 17.1714 3.28571 33.6977 3.28571Z" fill="#FF0000"/>
<path d="M19.2559 50.5477C19.2559 51.4333 19.9747 52.1504 20.8605 52.1504C23.6277 52.1504 44.128 52.1504 46.5349 52.1504V52.1512C47.3373 52.1512 48.1396 51.4333 48.1396 50.5469C48.1396 49.6606 47.4215 48.9419 46.5349 48.9419C43.7685 48.9419 23.6277 48.9419 20.8605 48.9419C19.9739 48.9419 19.2559 49.6622 19.2559 50.5477Z" fill="#FF0000"/>
<path d="M40.9206 28.0813C41.1621 28.0813 41.4068 28.0267 41.637 27.912L49.6597 23.9011C50.4523 23.5048 50.7732 22.5413 50.3777 21.748C49.9806 20.9554 49.0163 20.6337 48.2244 21.03L40.2018 25.041C39.4092 25.4373 39.0883 26.4007 39.4838 27.1941C39.7662 27.7564 40.3326 28.0813 40.9206 28.0813Z" fill="#FF0000"/>
<path d="M16.131 23.0984L24.1531 27.1095C24.3841 27.225 24.6288 27.2788 24.8703 27.2788C25.4583 27.2788 26.0255 26.9539 26.307 26.3915C26.7033 25.5989 26.3816 24.6354 25.5891 24.2383L17.567 20.2272C16.7752 19.8317 15.8109 20.1526 15.4138 20.9452C15.0175 21.7386 15.3392 22.7021 16.131 23.0984Z" fill="#FF0000"/>
</svg>
